src/icons/advanced.svg

<svg viewBox="0 0 24 24" fill="none" xmlns="http://www.w3.org/2000/svg">
<path d="M9.96147 11.3792H10.1879C10.3237 11.3792 10.4349 11.268 10.4349 11.1325V10.9058C10.4349 10.7701 10.3237 10.6587 10.1879 10.6587H9.96147C9.82572 10.6587 9.71436 10.7701 9.71436 10.9058V11.1325C9.71436 11.268 9.82572 11.3792 9.96147 11.3792Z" fill="black"/>
<path d="M10.9286 12.3466H11.1551C11.2908 12.3466 11.402 12.2354 11.402 12.0996V11.873C11.402 11.7376 11.2908 11.6262 11.1551 11.6262H10.9286C10.7929 11.6262 10.6816 11.7376 10.6816 11.873V12.0996C10.6816 12.2354 10.7929 12.3466 10.9286 12.3466Z" fill="black"/>
<path d="M10.9286 11.3792H11.1551C11.2908 11.3792 11.402 11.268 11.402 11.1325V10.9058C11.402 10.7701 11.2908 10.6587 11.1551 10.6587H10.9286C10.7929 10.6587 10.6816 10.7701 10.6816 10.9058V11.1325C10.6816 11.268 10.7929 11.3792 10.9286 11.3792Z" fill="black"/>
<path d="M9.96147 12.3466H10.1879C10.3237 12.3466 10.4349 12.2354 10.4349 12.0996V11.873C10.4349 11.7376 10.3237 11.6262 10.1879 11.6262H9.96147C9.82572 11.6262 9.71436 11.7376 9.71436 11.873V12.0996C9.71436 12.2354 9.82572 12.3466 9.96147 12.3466Z" fill="black"/>
<path d="M15.4411 13.5474H15.1923C15.0426 13.5474 14.9204 13.6697 14.9204 13.8192V14.0685C14.9204 14.2176 15.0426 14.3398 15.1923 14.3398H15.4411C15.5907 14.3398 15.7129 14.2176 15.7129 14.0685V13.8192C15.7129 13.6697 15.5907 13.5474 15.4411 13.5474Z" fill="black"/>
<path d="M16.2561 15.4039H16.5052C16.6545 15.4039 16.7771 15.2815 16.7771 15.1322V14.8829C16.7771 14.7339 16.6545 14.6116 16.5052 14.6116H16.2561C16.1068 14.6116 15.9846 14.7339 15.9846 14.8829V15.1322C15.9846 15.2815 16.1068 15.4039 16.2561 15.4039Z" fill="black"/>
<path d="M16.2561 14.3398H16.5052C16.6545 14.3398 16.7771 14.2176 16.7771 14.0685V13.8192C16.7771 13.6697 16.6545 13.5474 16.5052 13.5474H16.2561C16.1068 13.5474 15.9846 13.6697 15.9846 13.8192V14.0685C15.9846 14.2176 16.1068 14.3398 16.2561 14.3398Z" fill="black"/>
<path d="M15.4411 14.6116H15.1923C15.0426 14.6116 14.9204 14.7339 14.9204 14.8829V15.1322C14.9204 15.2815 15.0426 15.4039 15.1923 15.4039H15.4411C15.5907 15.4039 15.7129 15.2815 15.7129 15.1322V14.8829C15.7129 14.7339 15.5907 14.6116 15.4411 14.6116Z" fill="black"/>
<path d="M8.32503 14.8447H8.12564C8.00581 14.8447 7.90796 14.9427 7.90796 15.0624V15.2623C7.90796 15.3816 8.00579 15.4796 8.12564 15.4796H8.32503C8.44488 15.4796 8.54288 15.3816 8.54288 15.2623V15.0624C8.54288 14.9427 8.44488 14.8447 8.32503 14.8447Z" fill="black"/>
<path d="M8.97759 16.332H9.17732C9.29715 16.332 9.395 16.234 9.395 16.1143V15.9146C9.395 15.7953 9.29717 15.6973 9.17732 15.6973H8.97759C8.85808 15.6973 8.76025 15.7953 8.76025 15.9146V16.1143C8.76025 16.234 8.85808 16.332 8.97759 16.332Z" fill="black"/>
<path d="M8.97759 15.4796H9.17732C9.29715 15.4796 9.395 15.3816 9.395 15.2623V15.0624C9.395 14.9427 9.29717 14.8447 9.17732 14.8447H8.97759C8.85808 14.8447 8.76025 14.9427 8.76025 15.0624V15.2623C8.76025 15.3816 8.85808 15.4796 8.97759 15.4796Z" fill="black"/>
<path d="M8.32503 15.6973H8.12564C8.00581 15.6973 7.90796 15.7953 7.90796 15.9146V16.1143C7.90796 16.234 8.00579 16.332 8.12564 16.332H8.32503C8.44488 16.332 8.54288 16.234 8.54288 16.1143V15.9146C8.54288 15.7953 8.44488 15.6973 8.32503 15.6973Z" fill="black"/>
<path d="M5.17337 15.877L12.2346 19.9534C12.2881 19.9846 12.348 20 12.4079 20C12.4677 20 12.5273 19.9846 12.5812 19.9534L19.6421 15.877C19.7494 15.815 19.8154 15.7006 19.8154 15.5767V7.42333C19.8154 7.29943 19.7494 7.18499 19.6421 7.12305L12.5812 3.04645C12.474 2.98452 12.3419 2.98452 12.2346 3.04645L5.17337 7.12305C5.06622 7.18499 5.00004 7.29941 5.00004 7.42333V15.5767C5.00004 15.7006 5.06622 15.815 5.17337 15.877ZM12.4079 18.8578L6.73922 15.6703L8.37538 14.0342C8.52903 13.8805 8.77723 13.8776 8.93441 14.0277L13.3267 18.2203L12.4079 18.8578ZM18.8517 15.0328L14.0705 17.7953L11.733 15.3516L15.5078 11.535C15.6632 11.3778 15.9167 11.3766 16.0738 11.5322L18.855 14.2891L18.8517 15.0328ZM5.88922 8.15272C5.88922 7.93785 6.00412 7.73938 6.19046 7.63239L12.2077 4.17749C12.3316 4.10634 12.4841 4.1067 12.6077 4.17845L18.5563 7.63192C18.7412 7.73928 18.855 7.93696 18.855 8.15081V13.0605L16.0345 10.3991C15.899 10.2637 15.6794 10.2637 15.5443 10.3991L14.4397 11.5036L10.7417 7.80536C10.6117 7.67537 10.3815 7.67537 10.2515 7.80536L5.88922 12.1641V8.15272ZM5.88922 13.6516L10.2122 9.16546C10.3682 9.00364 10.6268 9.002 10.7848 9.16185L13.7517 12.1641L11.2017 14.8203L8.9274 12.785C8.79201 12.6496 8.57247 12.6496 8.43722 12.785L5.88922 15.3516V14.2891V13.6516Z" fill="black"/>
</svg>

<svg viewBox="0 0 24 24" fill="currentColor" xmlns="http://www.w3.org/2000/svg"><path d="M9.961 11.38h.227a.248.248 0 0 0 .247-.248v-.226a.248.248 0 0 0-.247-.247H9.96a.248.248 0 0 0-.247.247v.226c0 .136.112.247.247.247zM10.929 12.347h.226a.248.248 0 0 0 .247-.247v-.227a.248.248 0 0 0-.247-.247h-.226a.248.248 0 0 0-.247.247v.227c0 .135.11.247.247.247zM10.929 11.38h.226a.248.248 0 0 0 .247-.248v-.226a.248.248 0 0 0-.247-.247h-.226a.248.248 0 0 0-.247.247v.226c0 .136.11.247.247.247zM9.961 12.347h.227a.248.248 0 0 0 .247-.247v-.227a.248.248 0 0 0-.247-.247H9.96a.248.248 0 0 0-.247.247v.227c0 .135.112.247.247.247zM15.441 13.547h-.249a.273.273 0 0 0-.272.272v.25c0 .149.123.27.272.27h.25c.149 0 .27-.121.27-.27v-.25a.273.273 0 0 0-.27-.272zM16.256 15.404h.25c.148 0 .271-.123.271-.272v-.25a.273.273 0 0 0-.272-.27h-.249a.272.272 0 0 0-.271.27v.25c0 .15.122.272.271.272zM16.256 14.34h.25c.148 0 .271-.122.271-.271v-.25a.273.273 0 0 0-.272-.272h-.249a.272.272 0 0 0-.271.272v.25c0 .149.122.27.271.27zM15.441 14.612h-.249a.272.272 0 0 0-.272.27v.25c0 .15.123.272.272.272h.25c.149 0 .27-.123.27-.272v-.25a.272.272 0 0 0-.27-.27zM8.325 14.845h-.2a.218.218 0 0 0-.217.217v.2c0 .12.098.218.218.218h.199c.12 0 .218-.098.218-.218v-.2a.218.218 0 0 0-.218-.217zM8.978 16.332h.2c.12 0 .217-.098.217-.218v-.2a.218.218 0 0 0-.218-.217h-.2a.218.218 0 0 0-.217.218v.2c0 .119.098.217.218.217zM8.978 15.48h.2c.12 0 .217-.098.217-.218v-.2a.218.218 0 0 0-.218-.217h-.2a.218.218 0 0 0-.217.217v.2c0 .12.098.218.218.218zM8.325 15.697h-.2a.218.218 0 0 0-.217.218v.2c0 .119.098.217.218.217h.199c.12 0 .218-.098.218-.218v-.2a.218.218 0 0 0-.218-.217z" fill="#000"/><path d="m5.173 15.877 7.062 4.076a.344.344 0 0 0 .346 0l7.061-4.076a.347.347 0 0 0 .173-.3V7.423a.347.347 0 0 0-.173-.3l-7.06-4.077a.347.347 0 0 0-.347 0L5.173 7.123a.347.347 0 0 0-.173.3v8.154c0 .124.066.238.173.3zm7.235 2.98L6.739 15.67l1.636-1.636a.4.4 0 0 1 .56-.006l4.392 4.192-.92.638zm6.444-3.824-4.782 2.762-2.337-2.443 3.775-3.817a.4.4 0 0 1 .566-.003l2.781 2.757-.003.744zM5.889 8.153a.6.6 0 0 1 .301-.52l6.018-3.456a.4.4 0 0 1 .4.001l5.948 3.454a.6.6 0 0 1 .299.519v4.91l-2.82-2.662a.347.347 0 0 0-.49 0l-1.105 1.105-3.698-3.699a.357.357 0 0 0-.49 0l-4.363 4.36V8.152zm0 5.499 4.323-4.487a.4.4 0 0 1 .573-.003l2.967 3.002-2.55 2.656-2.275-2.035a.347.347 0 0 0-.49 0L5.89 15.352v-1.7z" fill="#000"/></svg>
